; G-Code generated by Simplify3D(R) Version 4.1.2
; Apr 11, 2020 at 11:55:12 AM
; Settings Summary
;   processName,WoodFill
;   applyToModels,_???? ?????? ?????
;   profileName,FlashForge Inventor (modified)
;   profileVersion,2019-10-19 13:55:18
;   baseProfile,FlashForge Dreamer(3)
;   printMaterial,PLA
;   printQuality,Medium
;   printExtruders,Left Extruder Only
;   extruderName,Right Extruder,Left Extruder
;   extruderToolheadNumber,0,1
;   extruderDiameter,0.4,0.4
;   extruderAutoWidth,1,1
;   extruderWidth,0.48,0.48
;   extrusionMultiplier,1,1.02
;   extruderUseRetract,1,1
;   extruderRetractionDistance,1.3,1.3
;   extruderExtraRestartDistance,0,0
;   extruderRetractionZLift,0,0
;   extruderRetractionSpeed,1800,1800
;   extruderUseCoasting,0,0
;   extruderCoastingDistance,0.2,0
;   extruderUseWipe,0,0
;   extruderWipeDistance,5,3
;   primaryExtruder,1
;   layerHeight,0.2
;   topSolidLayers,3
;   bottomSolidLayers,3
;   perimeterOutlines,2
;   printPerimetersInsideOut,1
;   startPointOption,1
;   startPointOriginX,0
;   startPointOriginY,0
;   sequentialIslands,1
;   spiralVaseMode,0
;   firstLayerHeightPercentage,90
;   firstLayerWidthPercentage,125
;   firstLayerUnderspeed,0.35
;   useRaft,0
;   raftExtruder,1
;   raftTopLayers,1
;   raftBaseLayers,1
;   raftOffset,1.5
;   raftSeparationDistance,0.14
;   raftTopInfill,100
;   aboveRaftSpeedMultiplier,0.3
;   useSkirt,1
;   skirtExtruder,1
;   skirtLayers,1
;   skirtOutlines,2
;   skirtOffset,3
;   usePrimePillar,0
;   primePillarExtruder,999
;   primePillarWidth,12
;   primePillarLocation,7
;   primePillarSpeedMultiplier,1
;   useOozeShield,0
;   oozeShieldExtruder,999
;   oozeShieldOffset,2
;   oozeShieldOutlines,1
;   oozeShieldSidewallShape,1
;   oozeShieldSidewallAngle,30
;   oozeShieldSpeedMultiplier,1
;   infillExtruder,1
;   internalInfillPattern,Rectilinear
;   externalInfillPattern,Rectilinear
;   infillPercentage,20
;   outlineOverlapPercentage,30
;   infillExtrusionWidthPercentage,200
;   minInfillLength,4
;   infillLayerInterval,1
;   internalInfillAngles,45,-45
;   overlapInternalInfillAngles,0
;   externalInfillAngles,45,-45
;   generateSupport,0
;   supportExtruder,1
;   supportInfillPercentage,18
;   supportExtraInflation,0
;   supportBaseLayers,2
;   denseSupportExtruder,1
;   denseSupportLayers,0
;   denseSupportInfillPercentage,70
;   supportLayerInterval,1
;   supportHorizontalPartOffset,0.2
;   supportUpperSeparationLayers,1
;   supportLowerSeparationLayers,1
;   supportType,0
;   supportGridSpacing,1
;   maxOverhangAngle,55
;   supportAngles,0
;   temperatureName,Heated Build Platform,Right Extruder,Left Extruder
;   temperatureNumber,0,0,1
;   temperatureSetpointCount,1,1,1
;   temperatureSetpointLayers,1,1,1
;   temperatureSetpointTemperatures,65,0,200
;   temperatureStabilizeAtStartup,1,0,0
;   temperatureHeatedBed,1,0,0
;   fanLayers,1,2
;   fanSpeeds,0,60
;   blipFanToFullPower,0
;   adjustSpeedForCooling,1
;   minSpeedLayerTime,15
;   minCoolingSpeedSlowdown,20
;   increaseFanForCooling,0
;   minFanLayerTime,45
;   maxCoolingFanSpeed,100
;   increaseFanForBridging,1
;   bridgingFanSpeed,100
;   use5D,1
;   relativeEdistances,0
;   allowEaxisZeroing,0
;   independentExtruderAxes,1
;   includeM10123,0
;   stickySupport,1
;   applyToolheadOffsets,0
;   gcodeXoffset,0
;   gcodeYoffset,0
;   gcodeZoffset,0
;   overrideMachineDefinition,1
;   machineTypeOverride,0
;   strokeXoverride,230
;   strokeYoverride,150
;   strokeZoverride,160
;   originOffsetXoverride,115
;   originOffsetYoverride,75
;   originOffsetZoverride,0
;   homeXdirOverride,1
;   homeYdirOverride,1
;   homeZdirOverride,-1
;   flipXoverride,1
;   flipYoverride,-1
;   flipZoverride,1
;   toolheadOffsets,0,0|33,0|0,0|0,0|0,0|0,0
;   overrideFirmwareConfiguration,1
;   firmwareTypeOverride,FlashForge Dreamer Firmware
;   GPXconfigOverride,r2
;   baudRateOverride,115200
;   overridePrinterModels,1
;   printerModelsOverride,FlashForge_Dreamer.stl
;   startingGcode,M146 r255 g0 b0 ; Set lights to red while preheating,M907 X100 Y100 Z40 A100 B100 ; Set motor current,M132 X Y Z A B ; Recall home offsets,M612 X34.5 Y0.0 ; Set toolhead offsets,M108 T1 ; Change to left extruder,G28 ; Home axes,G1 Z100 F3300 ; Lower Z,G1 X-110.5 Y-74 F6000 ; Move to wait position,M7 ; Wait for bed to stabilize,M6 T1 ; Wait for left extruder to reach target temp,G1 X-100 Y-70 F9000 ; Move to front left corner of bed,G1 Z0.3 F6000 ; Move down to purge,G92 E0 ; Zero extruders,; G1 X90 Y-70 E24 F2000 ; Extrude a line of filament across the front edge of the bed,; G1 X100 Y-70 F180 ; Wait for ooze,; G1 X110 Y-70 F5000 ; Fast wipe,; G1 Z1 F6000 ;F100 ; Lift,; G92 E0 ; Zero extruders again,M146 r255 g255 b255 ; Turn lights on for print,G1 Z0.5 F3300 ; Position nozzle
;   layerChangeGcode,
;   retractionGcode,
;   toolChangeGcode,
;   endingGcode,M140 S0 ; cool down HBP,M104 S0 T0 ; cool down right extruder,M104 S0 T1 ; cool down left extruder,G1 Z140 F3300 ; send Z axis to bottom of machine,M107 ; disable cooling fan,G28 X0 Y0 ; home XY axes,; M146 r0 g0 b0 ; Turn lights off,M18 ; disable stepper
;   exportFileFormat,gcode
;   celebration,0
;   celebrationSong,Random Song
;   postProcessing,
;   defaultSpeed,3000
;   outlineUnderspeed,0.5
;   solidInfillUnderspeed,0.8
;   supportUnderspeed,0.8
;   rapidXYspeed,4200
;   rapidZspeed,1200
;   minBridgingArea,50
;   bridgingExtraInflation,0.5
;   bridgingExtrusionMultiplier,1
;   bridgingSpeedMultiplier,0.8
;   useFixedBridgingAngle,0
;   fixedBridgingAngle,0
;   applyBridgingToPerimeters,0
;   filamentDiameters,1.75|1.75|1.75|1.75|1.75|1.75
;   filamentPricesPerKg,1495|1495|1495|1495|1495|1495
;   filamentDensities,1.25|1.25|1.25|1.25|1.25|1.25
;   useMinPrintHeight,0
;   minPrintHeight,5
;   useMaxPrintHeight,0
;   maxPrintHeight,59.2
;   useDiaphragm,0
;   diaphragmLayerInterval,20
;   robustSlicing,1
;   mergeAllIntoSolid,0
;   onlyRetractWhenCrossingOutline,1
;   retractBetweenLayers,1
;   useRetractionMinTravel,0
;   retractionMinTravel,3
;   retractWhileWiping,0
;   onlyWipeOutlines,1
;   avoidCrossingOutline,0
;   maxMovementDetourFactor,5
;   toolChangeRetractionDistance,12
;   toolChangeExtraRestartDistance,-0.5
;   toolChangeRetractionSpeed,600
;   externalThinWallType,0
;   internalThinWallType,2
;   thinWallAllowedOverlapPercentage,10
;   singleExtrusionMinLength,1
;   singleExtrusionMinPrintingWidthPercentage,50
;   singleExtrusionMaxPrintingWidthPercentage,200
;   singleExtrusionEndpointExtension,0.2
;   horizontalSizeCompensation,0
G90
M82
M107
M140 S65
M190 S65
M104 S0 T0
M104 S200 T1
M146 r255 g0 b0 ; Set lights to red while preheating
M907 X100 Y100 Z40 A100 B100 ; Set motor current
M132 X Y Z A B ; Recall home offsets
M612 X34.5 Y0.0 ; Set toolhead offsets
M108 T1 ; Change to left extruder
G28 ; Home axes
G1 Z100 F3300 ; Lower Z
G1 X-110.5 Y-74 F6000 ; Move to wait position
M7 ; Wait for bed to stabilize
M6 T1 ; Wait for left extruder to reach target temp
G1 X-100 Y-70 F9000 ; Move to front left corner of bed
G1 Z0.3 F6000 ; Move down to purge
G92 E0 ; Zero extruders
; G1 X90 Y-70 E24 F2000 ; Extrude a line of filament across the front edge of the bed
; G1 X100 Y-70 F180 ; Wait for ooze
; G1 X110 Y-70 F5000 ; Fast wipe
; G1 Z1 F6000 ;F100 ; Lift
; G92 E0 ; Zero extruders again
M146 r255 g255 b255 ; Turn lights on for print
G1 Z0.5 F3300 ; Position nozzle
; process WoodFill
; layer 1, Z = 0.180
M108 T1
G1 E-1.3000 F1800
; feature skirt
; tool H0.180 W0.600
G1 Z0.180 F1200
G1 X26.031 Y-12.007 F4200
G1 E0.0000 F1800
G1 X26.031 Y-2.076 E0.4548 F1050
G1 X23.746 Y0.208 E0.6028
G1 X-27.285 Y0.208 E2.9400
G1 X-29.569 Y-2.076 E3.0879
G1 X-29.569 Y-12.007 E3.5428
G1 X-27.285 Y-14.292 E3.6907
G1 X23.746 Y-14.292 E6.0279
G1 X26.031 Y-12.007 E6.1759
G1 E4.8759 F1800
G1 X-28.969 Y-2.325 F4200
G1 E6.1759 F1800
G1 X-28.969 Y-11.759 E6.6079 F1050
G1 X-27.036 Y-13.692 E6.7331
G1 X23.498 Y-13.692 E9.0476
G1 X25.431 Y-11.759 E9.1728
G1 X25.431 Y-2.325 E9.6048
G1 X23.498 Y-0.392 E9.7300
G1 X-27.036 Y-0.392 E12.0444
G1 X-28.969 Y-2.325 E12.1696
G1 E10.8696 F1800
; feature inner perimeter
G1 X8.711 Y-8.492 F4200
G1 E12.1696 F1800
G1 X-12.249 Y-8.492 E13.1296 F788
G1 X-12.826 Y-9.492 E13.1825
G1 X9.288 Y-9.492 E14.1953
G1 X8.711 Y-8.492 E14.2482
G1 X10.674 Y-9.492 F4200
G1 X21.231 Y-9.492 E14.7317 F788
G1 X21.231 Y-4.592 E14.9561
G1 X-24.769 Y-4.592 E17.0629
G1 X-24.769 Y-9.492 E17.2873
G1 X-14.212 Y-9.492 E17.7708
G1 X-14.789 Y-8.492 E17.8237
G1 X-23.569 Y-8.492 E18.2258
G1 X-23.569 Y-5.792 E18.3494
G1 X20.031 Y-5.792 E20.3463
G1 X20.031 Y-8.492 E20.4700
G1 X11.251 Y-8.492 E20.8721
G1 X10.674 Y-9.492 E20.9250
; feature outer perimeter
G1 X21.831 Y-10.092 F4200
G1 X21.831 Y-3.992 E21.2043 F525
G1 X-25.369 Y-3.992 E23.3660
G1 X-25.369 Y-10.092 E23.6454
G1 X21.831 Y-10.092 E25.8071
G1 X19.431 Y-7.892 F4200
G1 X10.904 Y-7.892 E26.1977 F525
G1 X9.981 Y-9.492 E26.2823
G1 X9.057 Y-7.892 E26.3669
G1 X-12.596 Y-7.892 E27.3586
G1 X-13.519 Y-9.492 E27.4432
G1 X-14.443 Y-7.892 E27.5278
G1 X-22.969 Y-7.892 E27.9184
G1 X-22.969 Y-6.392 E27.9871
G1 X19.431 Y-6.392 E29.9289
G1 X19.431 Y-7.892 E29.9976
; feature solid layer
G1 X20.451 Y-7.732 F4200
G1 X20.811 Y-7.372 E30.0210 F840
G1 X20.811 Y-6.523 E30.0598
G1 X20.451 Y-6.883 E30.0831
G1 X20.451 Y-6.035 E30.1220
G1 X20.811 Y-5.675 E30.1453
G1 X20.811 Y-5.012 E30.1757
G1 X20.625 Y-5.012 E30.1842
G1 X20.265 Y-5.372 E30.2075
G1 X19.417 Y-5.372 E30.2464
G1 X19.777 Y-5.012 E30.2697
G1 X18.928 Y-5.012 E30.3085
G1 X18.568 Y-5.372 E30.3319
G1 X17.720 Y-5.372 E30.3707
G1 X18.080 Y-5.012 E30.3940
G1 X17.231 Y-5.012 E30.4329
G1 X16.871 Y-5.372 E30.4562
G1 X16.023 Y-5.372 E30.4951
G1 X16.383 Y-5.012 E30.5184
G1 X15.534 Y-5.012 E30.5573
G1 X15.174 Y-5.372 E30.5806
G1 X14.326 Y-5.372 E30.6194
G1 X14.686 Y-5.012 E30.6428
G1 X13.837 Y-5.012 E30.6816
G1 X13.477 Y-5.372 E30.7049
G1 X12.629 Y-5.372 E30.7438
G1 X12.989 Y-5.012 E30.7671
G1 X12.140 Y-5.012 E30.8060
G1 X11.780 Y-5.372 E30.8293
G1 X10.932 Y-5.372 E30.8681
G1 X11.292 Y-5.012 E30.8915
G1 X10.443 Y-5.012 E30.9303
G1 X10.083 Y-5.372 E30.9536
G1 X9.235 Y-5.372 E30.9925
G1 X9.595 Y-5.012 E31.0158
G1 X8.746 Y-5.012 E31.0547
G1 X8.386 Y-5.372 E31.0780
G1 X7.538 Y-5.372 E31.1169
G1 X7.898 Y-5.012 E31.1402
G1 X7.049 Y-5.012 E31.1790
G1 X6.689 Y-5.372 E31.2024
G1 X5.840 Y-5.372 E31.2412
G1 X6.200 Y-5.012 E31.2645
G1 X5.352 Y-5.012 E31.3034
G1 X4.992 Y-5.372 E31.3267
G1 X4.143 Y-5.372 E31.3656
G1 X4.503 Y-5.012 E31.3889
G1 X3.655 Y-5.012 E31.4278
G1 X3.295 Y-5.372 E31.4511
G1 X2.446 Y-5.372 E31.4899
G1 X2.806 Y-5.012 E31.5133
G1 X1.958 Y-5.012 E31.5521
G1 X1.598 Y-5.372 E31.5754
G1 X0.749 Y-5.372 E31.6143
G1 X1.109 Y-5.012 E31.6376
G1 X0.261 Y-5.012 E31.6765
G1 X-0.099 Y-5.372 E31.6998
G1 X-0.948 Y-5.372 E31.7387
G1 X-0.588 Y-5.012 E31.7620
G1 X-1.436 Y-5.012 E31.8008
G1 X-1.796 Y-5.372 E31.8242
G1 X-2.645 Y-5.372 E31.8630
G1 X-2.285 Y-5.012 E31.8863
G1 X-3.133 Y-5.012 E31.9252
G1 X-3.493 Y-5.372 E31.9485
G1 X-4.342 Y-5.372 E31.9874
G1 X-3.982 Y-5.012 E32.0107
G1 X-4.830 Y-5.012 E32.0496
G1 X-5.190 Y-5.372 E32.0729
G1 X-6.039 Y-5.372 E32.1117
G1 X-5.679 Y-5.012 E32.1350
G1 X-6.527 Y-5.012 E32.1739
G1 X-6.887 Y-5.372 E32.1972
G1 X-7.736 Y-5.372 E32.2361
G1 X-7.376 Y-5.012 E32.2594
G1 X-8.224 Y-5.012 E32.2983
G1 X-8.584 Y-5.372 E32.3216
G1 X-9.433 Y-5.372 E32.3604
G1 X-9.073 Y-5.012 E32.3838
G1 X-9.922 Y-5.012 E32.4226
G1 X-10.282 Y-5.372 E32.4459
G1 X-11.130 Y-5.372 E32.4848
G1 X-10.770 Y-5.012 E32.5081
G1 X-11.619 Y-5.012 E32.5470
G1 X-11.979 Y-5.372 E32.5703
G1 X-12.827 Y-5.372 E32.6092
G1 X-12.467 Y-5.012 E32.6325
G1 X-13.316 Y-5.012 E32.6713
G1 X-13.676 Y-5.372 E32.6947
G1 X-14.524 Y-5.372 E32.7335
G1 X-14.164 Y-5.012 E32.7568
G1 X-15.013 Y-5.012 E32.7957
G1 X-15.373 Y-5.372 E32.8190
G1 X-16.221 Y-5.372 E32.8579
G1 X-15.861 Y-5.012 E32.8812
G1 X-16.710 Y-5.012 E32.9201
G1 X-17.070 Y-5.372 E32.9434
G1 X-17.918 Y-5.372 E32.9822
G1 X-17.558 Y-5.012 E33.0056
G1 X-18.407 Y-5.012 E33.0444
G1 X-18.767 Y-5.372 E33.0677
G1 X-19.615 Y-5.372 E33.1066
G1 X-19.255 Y-5.012 E33.1299
G1 X-20.104 Y-5.012 E33.1688
G1 X-20.464 Y-5.372 E33.1921
G1 X-21.312 Y-5.372 E33.2310
G1 X-20.952 Y-5.012 E33.2543
G1 X-21.801 Y-5.012 E33.2931
G1 X-22.161 Y-5.372 E33.3165
G1 X-23.009 Y-5.372 E33.3553
G1 X-22.649 Y-5.012 E33.3786
G1 X-23.498 Y-5.012 E33.4175
G1 X-23.858 Y-5.372 E33.4408
G1 X-23.989 Y-5.372 E33.4468
G1 X-23.989 Y-5.503 E33.4528
G1 X-24.349 Y-5.863 E33.4761
G1 X-24.349 Y-6.711 E33.5150
G1 X-23.989 Y-6.351 E33.5383
G1 X-23.989 Y-7.200 E33.5772
G1 X-24.349 Y-7.560 E33.6005
G1 X-24.349 Y-8.408 E33.6394
G1 X-23.989 Y-8.048 E33.6627
G1 X-23.989 Y-8.897 E33.7015
G1 X-24.164 Y-9.072 E33.7129
G1 X-23.315 Y-9.072 E33.7517
G1 X-23.155 Y-8.912 E33.7621
G1 X-22.307 Y-8.912 E33.8009
G1 X-22.467 Y-9.072 E33.8113
G1 X-21.618 Y-9.072 E33.8502
G1 X-21.458 Y-8.912 E33.8605
G1 X-20.610 Y-8.912 E33.8994
G1 X-20.770 Y-9.072 E33.9098
G1 X-19.921 Y-9.072 E33.9486
G1 X-19.761 Y-8.912 E33.9590
G1 X-18.913 Y-8.912 E33.9978
G1 X-19.073 Y-9.072 E34.0082
G1 X-18.224 Y-9.072 E34.0471
G1 X-18.064 Y-8.912 E34.0574
G1 X-17.216 Y-8.912 E34.0963
G1 X-17.376 Y-9.072 E34.1067
G1 X-16.527 Y-9.072 E34.1455
G1 X-16.367 Y-8.912 E34.1559
G1 X-15.519 Y-8.912 E34.1947
G1 X-15.679 Y-9.072 E34.2051
G1 X-11.436 Y-9.072 F4200
G1 X-11.276 Y-8.912 E34.2155 F840
G1 X-10.427 Y-8.912 E34.2543
G1 X-10.587 Y-9.072 E34.2647
G1 X-9.739 Y-9.072 E34.3036
G1 X-9.579 Y-8.912 E34.3139
G1 X-8.730 Y-8.912 E34.3528
G1 X-8.890 Y-9.072 E34.3631
G1 X-8.042 Y-9.072 E34.4020
G1 X-7.882 Y-8.912 E34.4124
G1 X-7.033 Y-8.912 E34.4512
G1 X-7.193 Y-9.072 E34.4616
G1 X-6.345 Y-9.072 E34.5005
G1 X-6.185 Y-8.912 E34.5108
G1 X-5.336 Y-8.912 E34.5497
G1 X-5.496 Y-9.072 E34.5600
G1 X-4.648 Y-9.072 E34.5989
G1 X-4.488 Y-8.912 E34.6093
G1 X-3.639 Y-8.912 E34.6481
G1 X-3.799 Y-9.072 E34.6585
G1 X-2.951 Y-9.072 E34.6974
G1 X-2.791 Y-8.912 E34.7077
G1 X-1.942 Y-8.912 E34.7466
G1 X-2.102 Y-9.072 E34.7569
G1 X-1.254 Y-9.072 E34.7958
G1 X-1.094 Y-8.912 E34.8062
G1 X-0.245 Y-8.912 E34.8450
G1 X-0.405 Y-9.072 E34.8554
G1 X0.443 Y-9.072 E34.8943
G1 X0.603 Y-8.912 E34.9046
G1 X1.452 Y-8.912 E34.9435
G1 X1.292 Y-9.072 E34.9538
G1 X2.140 Y-9.072 E34.9927
G1 X2.300 Y-8.912 E35.0031
G1 X3.149 Y-8.912 E35.0419
G1 X2.989 Y-9.072 E35.0523
G1 X3.838 Y-9.072 E35.0912
G1 X3.998 Y-8.912 E35.1015
G1 X4.846 Y-8.912 E35.1404
G1 X4.686 Y-9.072 E35.1507
G1 X5.535 Y-9.072 E35.1896
G1 X5.695 Y-8.912 E35.2000
G1 X6.543 Y-8.912 E35.2388
G1 X6.383 Y-9.072 E35.2492
G1 X7.232 Y-9.072 E35.2881
G1 X7.392 Y-8.912 E35.2984
G1 X8.240 Y-8.912 E35.3373
G1 X8.080 Y-9.072 E35.3476
G1 X11.474 Y-9.072 F4200
G1 X11.634 Y-8.912 E35.3580 F840
G1 X12.483 Y-8.912 E35.3969
G1 X12.323 Y-9.072 E35.4072
G1 X13.171 Y-9.072 E35.4461
G1 X13.331 Y-8.912 E35.4565
G1 X14.180 Y-8.912 E35.4953
G1 X14.020 Y-9.072 E35.5057
G1 X14.868 Y-9.072 E35.5445
G1 X15.028 Y-8.912 E35.5549
G1 X15.877 Y-8.912 E35.5938
G1 X15.717 Y-9.072 E35.6041
G1 X16.565 Y-9.072 E35.6430
G1 X16.725 Y-8.912 E35.6534
G1 X17.574 Y-8.912 E35.6922
G1 X17.414 Y-9.072 E35.7026
G1 X18.263 Y-9.072 E35.7414
G1 X18.423 Y-8.912 E35.7518
G1 X19.271 Y-8.912 E35.7907
G1 X19.111 Y-9.072 E35.8010
G1 X19.960 Y-9.072 E35.8399
G1 X20.120 Y-8.912 E35.8503
G1 X20.451 Y-8.912 E35.8654
G1 X20.451 Y-8.580 E35.8806
G1 X20.811 Y-8.220 E35.9039
G1 X20.808 Y-9.072 E35.9430
G1 E34.6430 F1800
G1 X-24.347 Y-5.012 F4200
G1 E35.9430 F1800
G1 X-24.349 Y-5.014 E35.9431 F840
G1 E34.6431 F1800
; layer 2, Z = 0.380
M106 S153
; feature inner perimeter
; tool H0.200 W0.480
G1 Z0.380 F1200
G1 X-24.949 Y-4.412 F4200
G1 E35.9431 F1800
G1 X-24.949 Y-9.672 E36.1573 F2250
G1 X-13.900 Y-9.672 E36.6071
G1 X-14.685 Y-8.312 E36.6710
G1 X-23.389 Y-8.312 E37.0253
G1 X-23.389 Y-5.972 E37.1206
G1 X19.851 Y-5.972 E38.8809
G1 X19.851 Y-8.312 E38.9762
G1 X11.147 Y-8.312 E39.3305
G1 X10.362 Y-9.672 E39.3944
G1 X21.411 Y-9.672 E39.8442
G1 X21.411 Y-4.412 E40.0584
G1 X-24.949 Y-4.412 E41.9457
G1 E40.6457 F1800
G1 X-13.138 Y-9.672 F4200
G1 E41.9457 F1800
G1 X9.600 Y-9.672 E42.8714 F2250
G1 X8.815 Y-8.312 E42.9353
